public/img/field-23.svg

<svg width="85" height="68" viewBox="0 0 85 68" fill="none" xmlns="http://www.w3.org/2000/svg">
<path d="M85 59.1551L84.9645 59.125L85 59.0849L84.0984 58.3221L77.7921 52.5215C77.7921 52.5215 77.6807 52.6369 77.4983 52.8075L77.3311 52.9882C75.8926 54.3179 71.2832 58.1666 65.8735 58.2419C65.757 58.2419 65.6404 58.2419 65.5239 58.2419C62.6772 57.9358 59.9015 56.4204 57.0852 53.6154C52.4099 48.9388 47.2078 46.4148 41.6107 46.0786C41.4537 46.0786 41.2966 46.0786 41.1447 46.0786C40.3027 46.0046 39.4568 45.9828 38.612 46.0133C30.1834 46.3546 23.9227 51.9545 21.7953 54.1122C21.3394 54.5186 21.0658 54.8096 21.0051 54.8598L21.0355 54.8899C21.0262 54.9068 21.0142 54.9221 21 54.9351L21.9016 55.6878L28.2079 61.4934L28.5017 61.2024L28.6689 61.0217C30.1023 59.687 34.7168 55.8383 40.1266 55.7681C40.2431 55.7681 40.3545 55.7681 40.471 55.7681C43.3228 56.0741 46.0935 57.5895 48.9098 60.3945C53.5901 65.0511 58.782 67.5751 64.3792 67.9213C64.5311 67.9213 64.6882 67.9213 64.8452 67.9213C65.6872 67.9955 66.5331 68.0172 67.3778 67.9865C75.8065 67.6453 82.0672 62.0504 84.1946 59.8927C84.6353 59.4712 84.9139 59.1852 84.9696 59.125" fill="#EFC825"/>
<g clip-path="url(#clip0)">
<path d="M32.5743 19.0618L31.6189 18.956C31.1014 18.898 30.6408 19.27 30.5839 19.7845C30.5269 20.2991 30.8979 20.7625 31.4124 20.8195L32.3678 20.9253C32.4029 20.9292 32.4378 20.9312 32.4722 20.9312C32.9436 20.9312 33.3498 20.5763 33.4028 20.0968C33.4598 19.5822 33.0888 19.1188 32.5743 19.0618Z" fill="#5A2E91"/>
<path d="M58.9698 58.4115H54.2453C53.7274 58.4115 53.3078 58.8311 53.3078 59.349C53.3078 59.8669 53.7274 60.2865 54.2453 60.2865H58.9698C59.4765 60.2865 59.8888 60.6988 59.8888 61.2056C59.8888 61.7124 59.4765 62.1246 58.9698 62.1246H5.02837C4.52162 62.1246 4.10937 61.7124 4.10937 61.2056C4.10937 60.6988 4.52162 60.2865 5.02837 60.2865H49.8703C50.3882 60.2865 50.8078 59.8669 50.8078 59.349C50.8078 58.8311 50.3882 58.4115 49.8703 58.4115H45.5397C45.623 58.1524 45.669 57.8766 45.669 57.5903C45.669 56.1077 44.4629 54.9014 42.9803 54.9014H41.0204L36.7657 43.2563C37.6252 42.9115 38.1382 41.9863 37.9496 41.0614C37.9417 41.0229 37.9314 40.9851 37.9188 40.9478L35.2977 33.2174C35.3388 33.2178 35.3787 33.2153 35.4173 33.2106C36.4392 33.0856 37.1463 32.1266 36.9673 31.1129C36.6669 29.4102 36.5871 27.3517 36.7268 24.9738C36.7487 24.9947 37.6057 26.5837 39.6018 26.6786L47.808 27.0681C49.3324 27.1419 50.657 26.0353 50.7955 24.5251C50.9449 22.8947 49.6948 21.5362 48.1329 21.4621L41.2743 21.1365C41.5267 20.5867 41.4431 19.9781 41.1273 19.5301L38.1541 15.3085C38.1954 13.5725 36.2828 12.5258 35.1907 13.3075C35.0952 13.2327 35.0649 13.0383 35.0547 12.9178C37.6114 11.9146 39.2051 9.5021 39.3004 6.93223C39.3196 6.41473 38.9158 5.97986 38.3983 5.96061C37.8817 5.94536 37.4458 6.34536 37.4267 6.86273C37.3632 8.57236 36.3886 10.1336 34.8831 10.9374C31.0892 12.9627 26.7723 9.35798 28.0088 5.28999C29.0882 1.73849 33.6374 0.685993 36.1579 3.42724C36.5083 3.80824 37.1014 3.83324 37.4827 3.48261C37.8638 3.13211 37.8886 2.53912 37.5381 2.15787C34.0414 -1.64425 27.7166 -0.19763 26.2147 4.74461C25.3417 7.61711 26.4911 10.5854 28.8001 12.1833C28.7133 12.3685 28.5933 12.5427 28.4347 12.6122C28.295 12.509 28.1493 12.4132 27.9941 12.332C26.4092 11.5035 24.111 11.727 22.4553 12.5017L19.0107 14.1136C18.4083 14.3955 18.097 15.0555 18.2472 15.6901C18.0066 15.8376 15.9744 16.1913 15.3977 18.3612L13.2875 26.3012C12.8921 27.7889 13.7074 29.3071 15.1439 29.7574C16.6941 30.2434 18.2946 29.3237 18.6992 27.8003L20.394 21.4236C20.7976 21.7717 21.3666 21.8291 21.8283 21.5778L23.4701 20.684C22.9495 23.9037 22.5332 26.6057 22.2313 31.1256C22.1965 31.6476 22.4015 32.1823 22.8181 32.5488L21.8451 35.7347C21.6938 36.2298 21.9726 36.7538 22.4678 36.9051C22.9621 37.0558 23.4868 36.7776 23.6382 36.2823L24.1803 34.5073L27.873 41.5698C27.2186 43.1914 27.2741 43.4693 27.0538 43.4157C26.9713 43.3959 26.3627 43.2495 26.401 43.2588L24.389 42.7755C21.9195 42.1539 21.823 42.2203 21.8608 42.1024C22.1265 41.2331 22.0746 41.4028 22.3391 40.5368C22.5457 40.0136 22.2508 39.4383 21.7226 39.2874C21.2303 39.1463 20.7177 39.4262 20.5685 39.9151L20.0735 41.5361C19.7402 42.5866 20.352 43.7113 21.4317 43.9919L17.8986 56.6808C17.7358 57.2655 17.7673 57.8693 17.9558 58.412H5.02837C3.48787 58.412 2.23438 59.6654 2.23438 61.2061C2.23438 62.7466 3.48775 64.0001 5.02837 64.0001H58.9696C60.5101 64.0001 61.7636 62.7468 61.7636 61.2061C61.7638 59.6649 60.5104 58.4115 58.9698 58.4115ZM40.3502 22.9693C48.2829 23.4452 48.2398 23.1207 48.7039 23.6543C49.2572 24.2906 48.7473 25.2337 47.8973 25.195L39.6911 24.8055C38.5572 24.7515 38.2171 23.7433 38.0246 23.5296L39.5946 22.5223C39.6071 22.5342 39.8268 22.9446 40.3502 22.9693ZM37.6488 17.8467L39.4419 20.3923C37.3889 21.7095 37.0478 21.9283 37.0074 21.9541C37.0094 21.9528 37.0113 21.9516 37.0128 21.9506C37.0108 21.9518 37.0074 21.954 37.0012 21.958C37.1941 20.3631 37.4366 18.942 37.6488 17.8467ZM37.0043 21.9562C37.0018 21.9578 37.0023 21.9575 37.0043 21.9562V21.9562ZM39.3939 55.9133C39.5827 56.4295 40.0788 56.7763 40.6283 56.7763H42.9802C43.4289 56.7763 43.7939 57.1414 43.7939 57.5901C43.7939 58.0389 43.4289 58.4039 42.9802 58.4039C42.9672 58.4039 39.1078 58.4025 39.0719 58.4058C38.6584 58.4417 38.2709 58.1962 38.1289 57.8073L33.1871 44.2822C33.4361 44.2115 34.8016 43.8247 34.9603 43.7797L39.3939 55.9133ZM30.4832 13.0262C31.3452 13.3161 32.2577 13.4351 33.2224 13.3485C33.3387 14.0171 33.6688 14.5811 34.2427 14.9278C32.9714 16.7135 30.3527 16.2557 29.6686 14.2981C29.6465 14.235 29.6196 14.1747 29.5945 14.1133C29.9718 13.8431 30.2692 13.4595 30.4832 13.0262ZM18.866 19.8738C16.73 27.5253 17.0552 27.5546 16.4361 27.8958C15.6986 28.3024 14.8811 27.6062 15.1 26.7828L17.2102 18.843C17.5041 17.7377 18.583 17.6188 18.851 17.4666C18.9118 17.6437 19.4057 19.0801 19.4577 19.2313C19.4451 19.2397 18.9997 19.3703 18.866 19.8738ZM24.1118 31.1118C24.4312 26.4182 24.9393 23.3168 25.2442 21.4563C25.3378 20.8846 25.6757 19.7573 24.5518 19.0392C23.9896 18.6797 23.278 18.6535 22.6948 18.971L21.5628 19.5873C19.7486 14.3103 20.556 16.659 20.201 15.6266C22.5733 14.6806 23.9445 13.3682 26.3982 13.7518C26.6495 13.7911 26.8942 13.8723 27.1255 13.9933C27.4807 14.1791 27.7552 14.5071 27.8986 14.9171C29.2471 18.7752 34.6298 18.9786 36.2606 15.1406C36.2789 15.1918 36.2891 15.2583 36.2704 15.3363C35.1671 19.9151 34.3023 26.6412 35.1034 31.3381L24.1118 31.1118ZM25.524 33.0161L33.3038 33.1762L36.1129 41.4607C36.1088 41.4876 36.0894 41.5107 36.0621 41.5186C30.394 43.1245 30.8173 43.0336 30.7399 42.9024L25.524 33.0161ZM26.8733 45.2823C27.7843 45.3799 28.6521 44.8464 28.9738 43.9837L29.0635 43.7434C29.0757 43.756 29.5611 44.8574 30.8721 44.8574C31.0393 44.8574 31.2089 44.8355 31.3773 44.7928L36.3534 58.4114H27.0191C27.1007 58.1553 27.1456 57.8829 27.1456 57.6002C27.1457 56.112 25.935 54.9013 24.447 54.9013H24.1952L25.2296 51.1862L26.8733 45.2823ZM19.7055 57.1832L23.256 44.4314L25.0442 44.8609L22.0667 55.5553C21.9865 55.8435 22.0467 56.1577 22.2277 56.3959C22.4086 56.6342 22.6953 56.7764 22.9946 56.7764H24.4468C24.9011 56.7764 25.2706 57.146 25.2706 57.6003C25.2706 58.0424 24.9108 58.4021 24.4687 58.4021H20.7377C20.7098 58.4021 20.6821 58.4034 20.6542 58.4059C20.4708 58.4219 20.297 58.3867 20.1367 58.3001C19.7628 58.0983 19.5815 57.6285 19.7055 57.1832Z" fill="#5A2E91"/>
<path d="M37.0117 21.9508C37.0147 21.9489 37.014 21.9493 37.0117 21.9508V21.9508Z" fill="#5A2E91"/>
</g>
<defs>
<clipPath id="clip0">
<rect width="64" height="64" fill="white"/>
</clipPath>
</defs>
</svg>

<svg width="85" height="68" fill="none" xmlns="http://www.w3.org/2000/svg"><path d="M85 59.155l-.035-.03.035-.04-.902-.763-6.306-5.8s-.111.115-.294.285l-.167.181c-1.438 1.33-6.048 5.179-11.457 5.254h-.35c-2.847-.306-5.623-1.822-8.439-4.627-4.675-4.676-9.877-7.2-15.474-7.536h-.466a20.487 20.487 0 00-2.533-.066c-8.429.342-14.69 5.942-16.817 8.1-.456.406-.73.697-.79.747l.03.03a.177.177 0 01-.035.045l.902.753 6.306 5.805.294-.29.167-.181c1.433-1.335 6.048-5.184 11.458-5.254h.344c2.852.306 5.623 1.822 8.439 4.627 4.68 4.656 9.872 7.18 15.47 7.526h.465c.842.075 1.688.096 2.533.066 8.428-.342 14.69-5.937 16.817-8.094.44-.422.719-.708.775-.768" fill="#EFC825"/><g clip-path="url(#clip0)" fill="#5A2E91"><path d="M32.574 19.062l-.955-.106a.938.938 0 00-.206 1.864l.955.105a.938.938 0 00.206-1.863z"/><path d="M58.97 58.411h-4.725a.937.937 0 100 1.875h4.725a.92.92 0 010 1.839H5.028a.92.92 0 010-1.839H49.87a.937.937 0 100-1.875h-4.33a2.692 2.692 0 00-2.56-3.51h-1.96l-4.254-11.645a1.955 1.955 0 001.184-2.195.953.953 0 00-.031-.113l-2.621-7.73a.915.915 0 00.12-.007 1.798 1.798 0 001.55-2.098c-.301-1.703-.38-3.761-.241-6.14.022.022.879 1.61 2.875 1.706l8.206.39c1.524.073 2.849-1.034 2.987-2.544a2.808 2.808 0 00-2.662-3.063l-6.859-.325a1.615 1.615 0 00-.147-1.607l-2.973-4.222c.041-1.736-1.871-2.782-2.963-2-.096-.075-.126-.27-.136-.39A6.705 6.705 0 0039.3 6.932a.937.937 0 10-1.873-.07 4.836 4.836 0 01-2.544 4.075c-3.794 2.026-8.11-1.579-6.874-5.647 1.08-3.552 5.628-4.604 8.149-1.863a.938.938 0 001.38-1.27c-3.497-3.801-9.821-2.355-11.323 2.588a6.678 6.678 0 002.585 7.438c-.087.185-.207.36-.365.43a3.386 3.386 0 00-.44-.281c-1.586-.829-3.884-.605-5.54.17l-3.444 1.612a1.386 1.386 0 00-.764 1.576c-.24.148-2.273.501-2.85 2.671l-2.11 7.94c-.395 1.488.42 3.006 1.857 3.456a2.807 2.807 0 003.555-1.957l1.695-6.376c.404.348.973.405 1.434.154l1.642-.894c-.52 3.22-.937 5.922-1.239 10.442-.035.522.17 1.056.587 1.423l-.973 3.186a.937.937 0 101.793.547l.542-1.775 3.693 7.063c-.654 1.621-.599 1.9-.82 1.846l-.652-.157-2.012-.483c-2.47-.622-2.566-.556-2.528-.674l.478-1.565a.94.94 0 10-1.77-.622l-.495 1.621a1.933 1.933 0 001.358 2.456L17.899 56.68a2.903 2.903 0 00.057 1.731H5.028a2.797 2.797 0 00-2.794 2.794A2.797 2.797 0 005.028 64H58.97a2.797 2.797 0 002.794-2.794 2.797 2.797 0 00-2.794-2.795zM40.35 22.97c7.933.476 7.89.152 8.354.685.553.637.043 1.58-.807 1.541l-8.206-.39c-1.134-.053-1.474-1.062-1.666-1.275l1.57-1.008c.012.012.232.423.755.447zm-2.701-5.122l1.793 2.545a7823.258 7823.258 0 01-2.435 1.562l.006-.003c-.002 0-.006.003-.012.007a59.2 59.2 0 01.648-4.111zm-.645 4.11c-.002 0-.002 0 0 0zm2.39 33.956c.189.517.685.863 1.234.863h2.352a.815.815 0 010 1.628c-.013 0-3.872-.002-3.908.002a.92.92 0 01-.943-.599l-4.942-13.525 1.773-.502 4.434 12.133zm-8.91-42.887a6.61 6.61 0 002.738.322c.117.67.447 1.233 1.02 1.58-1.27 1.785-3.89 1.328-4.573-.63-.023-.063-.05-.123-.075-.185.378-.27.675-.653.89-1.087zm-11.618 6.848c-2.136 7.651-1.81 7.68-2.43 8.022-.737.406-1.555-.29-1.336-1.113l2.11-7.94c.294-1.105 1.373-1.224 1.641-1.376l.607 1.764c-.013.009-.458.14-.592.643zm5.246 11.238c.32-4.694.827-7.795 1.132-9.656.094-.571.432-1.699-.692-2.417a1.826 1.826 0 00-1.857-.068l-1.132.616-1.362-3.96c2.372-.946 3.744-2.259 6.197-1.875.252.04.496.12.727.241.356.186.63.514.774.924 1.348 3.858 6.73 4.062 8.362.224a.338.338 0 01.01.195c-1.104 4.58-1.969 11.305-1.168 16.002l-10.991-.226zm1.412 1.904l7.78.16 2.809 8.285a.072.072 0 01-.05.058c-5.669 1.605-5.246 1.515-5.323 1.383l-5.216-9.886zm1.35 12.266a2.015 2.015 0 002.1-1.298l.09-.24c.012.012.497 1.113 1.808 1.113.167 0 .337-.021.505-.064l4.976 13.618H27.02a2.65 2.65 0 00.127-.81 2.702 2.702 0 00-2.699-2.7h-.252l1.035-3.715 1.643-5.904zm-7.168 11.901l3.55-12.752 1.788.43-2.977 10.694a.968.968 0 00.16.84c.182.24.468.381.768.381h1.452c.454 0 .824.37.824.824 0 .442-.36.802-.802.802h-3.731a.933.933 0 00-.084.004.904.904 0 01-.517-.106c-.374-.202-.556-.671-.431-1.117z"/><path d="M37.012 21.95c.003-.001.002 0 0 0z"/></g><defs><clipPath id="clip0"><path fill="#fff" d="M0 0h64v64H0z"/></clipPath></defs></svg>
